X: 4600
T: Bouncing Sam Jago
R: jig
M: 6/8
K: Dminor
A,|D2A,D2E|FEDB,3|A,B,A, G,F,G,|A,B,A,A,2A,|D2A,D2E|FEDE2G|AFD A,B,C|DAFD2:|
|:AFD AFD|EFE EFG|AFD AFD|B,CB,A,3|AFD AFD|EFE EFG|AFD A,B,C|DAFD2:|

